!!!OTL-incipit: ICH FUHR WOHL UEBERN SEE
!!!ARE: Europa, Mitteleuropa, Deutschland, Herzogtum Berg
!!!SCT: Z0165
!!!TXL: @@DE
!!!YEM: Copyright 1995, estate of Helmut Schaffrath.
**kern	**text
*ICvox	*
*M2/4	*
*k[f#]	*
*e:	*
!LO:TX:a:t=Bergiſch.	!
{8B	Jch
=1	=1
8e	fuhr
8f#	wohl
8g	ü-
8a	-bern
=2	=2
8b	See,
16bL	weit,
16ccJ	.
8b}	weit,
{8b	ich
=3	=3
8cc	fuhr
8b	wohl
8a	ü-
8a	-bern
=4	=4
4.g}	See,
{8B	Jch
=5	=5
8e	fuhr
8f#	wohl
8g	ü-
8a	-bern
=6	=6
8b	See,
16bL	weit,
16ccJ	.
8b}	weit,
{8b	ich
=7	=7
8cc	fuhr
8b	wohl
8a	ü-
8a	-bern
=8	=8
4.g}	See,
{8b	auf
=9	=9
8b/	ei-
8a	-nem
8cc	höl-
8b	-ʒern
=10	=10
8.a	Löf-
16b/	-fel-
4a}	-chen,
=11	=11
{16g	Löf-
16g	-fel-
8g	-chen,
16g	Löf-
16f#	-fel-
8e	-chen,
=12	=12
8.f#	Löf-
16g	-fel-
8f#}	-chen,
{8b/	auf
=13	=13
8b/	ei-
8a	-nem
8cc	höl-
8b	-ʒern
=14	=14
8.a	Löf-
16b/	-fel-
8a}	-chen,
{8g	es
=15	=15
8f#	war
8e	kein
8b/	Stielchen
8b/	.
=16	=16
2r}	.
=17	=17
{8f#	war
8e	kein
8b/	Stielchen
8b/	.
=18	=18
4e	dran.
8r}	.
==	==
!!!Ag: Erzaehlung, lustige Romanze
!!!ONB: ESAC (Essen Associative Code) Database: ZUCCAL
!!!AMT: simple duple
!!!AIN: vox
!!!EED: Helmut Schaffrath
!!!EEV: 1.0
!!!GTL: II. Erzahlungen, lustige Romanzen, Kinder-Lieder und episch-lyrische Volks-Lieder.
!!!URL-scan: https://www.digitale-sammlungen.de/de/view/bsb11160571?page=311
!!!ENC: Anna Maria Matuszewska
!!!EEV: 2025/01/28
*-	*-
